; generated by PrusaSlicer 2.7.0+linux (hand-authored ζ fixture; faithful
; GCodeViewer comment vocabulary, not a live slicer — task η swaps in a real
; determinism golden)
;TYPE:Custom
; --- start g-code preamble (unknown codes the parser must skip) ---
G21 ; set units to millimeters
M115 ; firmware capabilities report
M73 P0 R0 ; print progress
M201 X1000 Y1000 Z200 E5000 ; set max acceleration
M204 P1250 R1250 T1250 ; set acceleration
G28 ; home all axes
M104 S210 ; set hotend temp
M109 S210 ; wait for hotend temp
M83 ; relative extruder distances
M73 P1 R0
; --- first layer ---
;LAYER_CHANGE
;Z:0.2
;HEIGHT:0.2
G1 Z0.2 F7200
;TYPE:Skirt/Brim
;WIDTH:0.45
G1 X-1 Y-1 F9000
G1 X11 Y-1 E1.20
G1 X11 Y11 E1.20
G1 X-1 Y11 E1.20
G1 X-1 Y-1 E1.20
;TYPE:External perimeter
G1 X0 Y0 F9000
G1 X10 Y0 E0.50
G1 X10 Y10 E0.50
G1 X0 Y10 E0.50
G1 X0 Y0 E0.50
;TYPE:Perimeter
G1 X0.45 Y0.45 F9000
G1 X9.55 Y0.45 E0.45
G1 X9.55 Y9.55 E0.45
G1 X0.45 Y9.55 E0.45
G1 X0.45 Y0.45 E0.45
;TYPE:Internal infill
;WIDTH:0.45
G1 X1 Y1 F9000
G1 X9 Y9 E1.00
G1 X9 Y1 F9000
G1 X1 Y9 E1.00
; --- second (top) layer ---
;LAYER_CHANGE
;Z:0.4
;HEIGHT:0.2
G1 Z0.4 F7200
M73 P50 R0
;TYPE:External perimeter
;WIDTH:0.45
G1 X0 Y0 F9000
G1 X10 Y0 E0.50
G1 X10 Y10 E0.50
G1 X0 Y10 E0.50
G1 X0 Y0 E0.50
;TYPE:Perimeter
G1 X0.45 Y0.45 F9000
G1 X9.55 Y0.45 E0.45
G1 X9.55 Y9.55 E0.45
G1 X0.45 Y9.55 E0.45
G1 X0.45 Y0.45 E0.45
;TYPE:Top solid infill
;WIDTH:0.45
G1 X1 Y1 F9000
G1 X9 Y1 E0.80
G1 X1 Y2 F9000
G1 X9 Y2 E0.80
; --- end g-code ---
M104 S0 ; turn off hotend
M73 P100 R0
; print complete
